X:1
T:Title
%%score { ( 1 3 ) | ( 2 4 ) }
L:1/8
M:9/8
K:D
V:1 treble nm="Grand Piano"
V:3 treble 
V:2 bass 
V:4 bass 
V:1
 z3 z3[Q:1/4=110] D2 F | [FA]3- [FA]2 [FA] [GB][FA][=F^G] | [FA]3 .F3 z FE | D3- D2 D EGF | %4
[M:3/4] [CE]6 |[M:3/8] D2 F |[M:9/8] [FA]3- [FA]2 [FA] [GB][FA][=F^G] | [FA]3 .F3 D2 [DE] | %8
 [DF]3 [DA]3 [DF]2 [CE] |[M:3/4] D6 |[M:3/8] [Fd][Fd][Fd] |[M:9/8] c3- c2 B AB[EGc] | %12
 d3 z3 [A,DF][A,EG][A,FA] | [DFB]3- [DFB]2 [DFB] Bed |[M:3/4] c6 |[M:3/8] A[AB][Gc] | %16
[M:9/8] [Fd]3- [Fd]2 [Ec] [Ge]d[DAc] | [DGB]6 [DBd][DAc][DGB] | %18
 [DFA]3 [Fd]3 [A,DF]2[K:bass] [G,CE] |[M:3/4] [F,D]6 |] %20
V:2
 z3 z3 [D,F,]2 [D,A,D] | [D,D]3- [D,D]2 [D,D] [D,D]2 [D,D] | [D,D]3 .[D,A,D]3 F,A,[G,A,C] | %3
 [F,A,]3- [F,A,]2 [F,A,] [E,A,C]2 [D,A,D] |[M:3/4] [A,,A,]6 |[M:3/8] [D,F,]2 [D,A,D] | %6
[M:9/8] [D,D]3- [D,D]2 [D,D] [D,D]2 [D,D] | [D,D]3 .[D,A,D]3 [B,,^G,]2 [B,,G,] | %8
 [A,,A,]3 [A,,F,]3 [A,,A,]2 [A,,G,] |[M:3/4] [D,F,]6 |[M:3/8] [D,A,][D,A,][D,A,] | %11
[M:9/8][K:treble] [A,G]3- [A,G]2 [A,DG] [A,G]-[A,DG][K:bass]A, | z3 .A3 D,D,D, | %13
 B,,3- B,,2 B,, [E,^G,E][E,G,E][E,G,E] |[M:3/4] [A,E]6 |[M:3/8] [F,A,][F,A,][F,A,] | %16
[M:9/8] z3 z3 .[D,D]3 | G,6 G,G,G, | A,3 A,3 A,,2 A,, |[M:3/4] D,6 |] %20
V:3
 x9 | x9 | z3 z3 .D3 | x9 |[M:3/4] x6 |[M:3/8] x3 |[M:9/8] x9 | x9 | x9 |[M:3/4] x6 |[M:3/8] x3 | %11
[M:9/8] x9 | [DF]6 z3 | x9 |[M:3/4] x6 |[M:3/8] x3 |[M:9/8] x9 | x9 | x8[K:bass] x |[M:3/4] x6 |] %20
V:4
 x9 | x9 | z3 z3 .D,3 | x9 |[M:3/4] x6 |[M:3/8] x3 |[M:9/8] x9 | x9 | x9 |[M:3/4] x6 |[M:3/8] x3 | %11
[M:9/8][K:treble] z3 z3 .C3[K:bass] | D,6 z3 | x9 |[M:3/4] x6 |[M:3/8] x3 | %16
[M:9/8] [D,A,]3- [D,A,]2 [D,A,] z FD, | x9 | x9 |[M:3/4] x6 |] %20

